X:1
T:Title
%%score { ( 1 3 ) | ( 2 4 ) }
L:1/8
M:6/8
K:Bb
V:1 treble nm="Grand Piano"
V:3 treble 
V:2 bass 
V:4 bass 
V:1
 z6[Q:1/4=87] | [F,DF]2 [DA] B>c[Dd] | [Ed]2 [G,EG] [Ec]2 [Ec] | d>cA d>cA | F2- [DF-] [E-F]E[EF] | %5
 F>G[B,FA] [B,FB]2 [Fd] | [Gc]2 [CGc] [Gd]2 [Ge] | d>cA G>Ac |[M:5/8] [DB]- [DB]3 z |[M:1/8] d | %10
[M:3/4] d>c B[C^FA]- [CFA]/[DFB]/[CFA] | [B,DG]4 z c | c>B A[B,=EG]- [B,EG]/[CEA]/[B,EG] | %13
 [A,CF]4 z [A,EF] | [DF]>[DG] [DA][DB]- [DB]/[Ec]/[Fd] | [Gc]>[G=B] [Gc][Gc] [Gd][Ge] | %16
 d>c AG- G/A/c |[M:5/8] B2- [EB-] [DB] z |] %18
V:2
 z3 z2 F | z z/ G/[B,,F,] [B,,F,]2 [B,,F,] | z z/[K:treble] c/[K:bass]B,, [B,,G,]2 [B,,G,] | %3
 [F,A,E]2 [F,CE] [F,A,E]2 [F,CE] | [B,,B,]2 [=B,,_A,] .[C,=A,]2 [C,A,] | %5
 [D,B,]2 D, z z/[K:treble] c/[K:bass][D,B,] | z z/[K:treble] =B/[K:bass]E, [D,=B,]2 [C,C] | %7
 [F,A,E]2 [F,CE] [F,CE]2 [F,A,E] |[M:5/8] B,2 F, B,, z |[M:1/8] D |[M:3/4] D>C B,D,- D,/D,/D, | %11
 G,2 D,G, z C | C>B, A,C,- C,/C,/C, | F,2 C,F, z F, | %14
 [B,,B,]>[B,,B,] [B,,F,][B,,F,]- [B,,F,]/[B,,F,]/[B,,B,] | [E,G,]>[E,G,] [E,G,][E,C] [D,=B,][C,C] | %16
 [F,A,E]>[F,A,E] [F,CE][F,CE]- [F,CE]/[F,CE]/[F,A,E] |[M:5/8] z2 G, F, z |] %18
V:3
 x6 | z3 .D3 | x6 | x6 | .D3 z3 | x6 | x6 | x6 |[M:5/8] x5 |[M:1/8] x |[M:3/4] x6 | x6 | x6 | x6 | %14
 x6 | x6 | x6 |[M:5/8] [B,D]2 z z2 |] %18
V:4
 x6 | .B,,3 z3 | .[B,,G,]3[K:treble][K:bass] z3 | x6 | x6 | z3 .D,3[K:treble][K:bass] | %6
 .[E,G,]3[K:treble][K:bass] z3 | x6 |[M:5/8] x5 |[M:1/8] x |[M:3/4] x6 | x6 | x6 | x6 | x6 | x6 | %16
 x6 |[M:5/8] B,,- B,,3 z |] %18

